Newaita-dark/actions/16/format-text-italic.svg

<svg height="16" viewBox="0 0 16 16" width="16" xmlns="http://www.w3.org/2000/svg"><path d="m9.261719 2.9375c-1.476563 0-2.914063.597656-3.828125 1.488281l.921875.6875c.546875-.511719 1.441406-.855469 2.371093-.855469h.382813c1.359375 0 2.261719.738282 2.023437 1.65625l-.515624 1.984376c-.582032-.46875-1.433594-.753907-2.453126-.753907-2.195312 0-4.3125 1.328125-4.742187 2.976563l-.085937.328125h.023437c-.171875 1.496093 1.207031 2.648437 3.253906 2.648437 1.019531 0 2.019531-.285156 2.84375-.753906l-.175781.679688h1.320312l.671876-2.574219.0625-.234375.023437-.09375 1.097656-4.207032c.425781-1.648437-.996093-2.976562-3.195312-2.976562zm-1.632813 5.527344h.382813c1.359375 0 2.261719.738281 2.023437 1.65625-.238281.914062-1.523437 1.652344-2.882812 1.652344h-.382813c-1.359375 0-2.265625-.738282-2.023437-1.652344.238281-.917969 1.523437-1.65625 2.882812-1.65625zm0 0" fill="#e0e0e0"/></svg>

<?xml version="1.0" encoding="UTF-8"?>
<svg xmlns="http://www.w3.org/2000/svg" xmlns:xlink="http://www.w3.org/1999/xlink" width="16px" height="16px" viewBox="0 0 16 16" version="1.1">
<g id="surface1">
<path style=" stroke:none;fill-rule:nonzero;fill:rgb(87.843138%,87.843138%,87.843138%);fill-opacity:1;" d="M 9.261719 2.9375 C 7.785156 2.9375 6.347656 3.535156 5.433594 4.425781 L 6.355469 5.113281 C 6.902344 4.601562 7.796875 4.257812 8.726562 4.257812 L 9.109375 4.257812 C 10.46875 4.257812 11.371094 4.996094 11.132812 5.914062 L 10.617188 7.898438 C 10.035156 7.429688 9.183594 7.144531 8.164062 7.144531 C 5.96875 7.144531 3.851562 8.472656 3.421875 10.121094 L 3.335938 10.449219 L 3.359375 10.449219 C 3.1875 11.945312 4.566406 13.097656 6.613281 13.097656 C 7.632812 13.097656 8.632812 12.8125 9.457031 12.34375 L 9.28125 13.023438 L 10.601562 13.023438 L 11.273438 10.449219 L 11.335938 10.214844 L 11.359375 10.121094 L 12.457031 5.914062 C 12.882812 4.265625 11.460938 2.9375 9.261719 2.9375 Z M 7.628906 8.464844 L 8.011719 8.464844 C 9.371094 8.464844 10.273438 9.203125 10.035156 10.121094 C 9.796875 11.035156 8.511719 11.773438 7.152344 11.773438 L 6.769531 11.773438 C 5.410156 11.773438 4.503906 11.035156 4.746094 10.121094 C 4.984375 9.203125 6.269531 8.464844 7.628906 8.464844 Z M 7.628906 8.464844 "/>
</g>
</svg>
